X: 1
T: Mist on the Mountain
C: Marianne Taylor (May 1992)
R: waltz
Z: 2006 John Chambers <jc:trillian.mit.edu>
S: handwritten MS by Barbara McOwen (SRSNH 3/94)
M: 3/4
L: 1/8
K: Fm
C2 \
| "Fm"A2AG F2 | "Bbm"B2BA G2 | "Fm"FGABcf | "Eb"e6- ee \
| "Fm"(3fgf c3 c | "Bbm"(3BcB F2 FG |1 "Bdim"A3 GFA | "C7"G4 :|2 "Bdim"A4 "C7"G2 | "F"F3 |]
K: F
CFG \
| "F"A3 CFA | "F7"c3 FAc | "Bb"d3 FBd | "G7"f4 f2 \
| "F"(3fgf c3 c | "Dm"(3cdc A3 A | "Gm"G3 ABA | "C7"G3 CFG |
| "F"A3 CFA | "F7"c3 FAc | "Bb"d3 FBd | "G7"f4 f2 \
| "F"f2 c2 c2 | "Dm"A2 A2 F2 | "Bb"D2 F2 "Gm"F2 | "F"F4 |]
